!!!COM: Mozart, Wolfgang Amadeus
!!!OTL: Musikalische Würfelspiele, Kontre-Tänze
!!!SCA: K<sup>6</sup> Anh. C30.01 (K<sup>3</sup> Anh. 294d)
**kern	**kern
*staff2	*staff2
*clefF4	*clefG2
*M2/4	*M2/4
*MM110	*MM110
*>[A,A1,A,A2,B]	*>[A,A1,A,A2,B]
*>norep[A,A2,B]	*>norep[A,A2,B]
*>A	*>A
=99	=99
16C	8g
16G	.
16E	4cc
16G	.
16C	.
16G	.
16E	8ee
16G	.
=14	=14
4C	8gg
.	8ee
4r	8cc
.	8cc
=40	=40
8G	16ff
.	16ee
8GG	16dd
.	16cc
8GG	16b
.	16cc
8GG	16dd
.	16b
=35	=35
4C	16cc
.	16dd
.	16ee
.	16dd
4CC	16cc
.	16ee
.	16gg
.	16cc
=111	=111
4D	8d
.	16f#
.	16a
4D	8dd
.	8ff#
=125	=125
4G	16bb
.	16ddd
.	16ccc
.	16bb
4BB	16aa
.	16gg
.	16ff#
.	16gg
=137	=137
4C	8ee
.	8ccc
4D	16bb
.	16aa
.	16gg
.	16ff#
=130	=130
*>A1	*>A1
4GG	4g 4b 4gg
16G	4r
16F	.
16E	.
16D	.
=130:|!	=130:|!
*>A2	*>A2
4GG	4g 4b 4gg
16GG	4r
16AA	.
16BB	.
16C#	.
=136||	=136||
*>B	*>B
4D	8dd
.	16ff#
.	16aa
4F#	8ddd
.	8ddd
=157	=157
4G	16gg
.	16aa
.	16bb
.	16ccc
4GG	4ddd
=138	=138
16C	8gg
16E	.
16G	4ee
16E	.
16C	.
16E	.
16G	8cc
16E	.
=107	=107
16BB	8dd
16D	.
16G	4b
16D	.
16G	.
16F	.
16E	8g
16D	.
=42	=42
4C	8cc
.	16cc
.	16ee
4r	8gg
.	16gg
.	16ee
=166	=166
4C	16gg
.	16aa
.	16gg
.	16ff
16E	8ee
16G	.
16E	8ee
16C	.
=60	=60
8G	8ff
16GG	8ff
16AA	.
16BB	8dd
16C	.
16D	8dd
16BB	.
=171	=171
4C	4cc
4CC	4c
==	==
*-	*-
